hospitalmanagementsystem/static/icons/medical-service-icon.svg

<svg xmlns="http://www.w3.org/2000/svg" viewBox="0 0 512 512"><path d="M466 512H46a46.06 46.06 0 0 1-46-46V176a16 16 0 0 1 16-16h480a16 16 0 0 1 16 16v290a46.06 46.06 0 0 1-46 46ZM32 192v274a14 14 0 0 0 14 14h420a14 14 0 0 0 14-14V192Z"/><path d="M466 458H46a46.06 46.06 0 0 1-46-46 16 16 0 0 1 32 0 14 14 0 0 0 14 14h420a14 14 0 0 0 14-14 16 16 0 0 1 32 0 46.06 46.06 0 0 1-46 46zM123 140a16 16 0 0 1 0-32 20 20 0 0 0 20-20V52a20 20 0 0 0-40 0v20a16 16 0 0 1-32 0V52a52 52 0 0 1 104 0v36a52.06 52.06 0 0 1-52 52zm266 0a16 16 0 0 1 0-32 20 20 0 0 0 20-20V52a20 20 0 0 0-40 0v20a16 16 0 0 1-32 0V52a52 52 0 0 1 104 0v36a52.06 52.06 0 0 1-52 52z"/><path d="M496 192H16a16 16 0 0 1-16-16v-74a46.06 46.06 0 0 1 46-46h420a46.06 46.06 0 0 1 46 46v74a16 16 0 0 1-16 16ZM32 160h448v-58a14 14 0 0 0-14-14H46a14 14 0 0 0-14 14Z"/><path d="M496 102v74h-97a170.14 170.14 0 0 0 70.9-103.74A30 30 0 0 1 496 102Z" opacity=".2"/><path d="M284 401h-56a16 16 0 0 1-16-16v-32h-32a16 16 0 0 1-16-16v-56a16 16 0 0 1 16-16h32v-32a16 16 0 0 1 16-16h56a16 16 0 0 1 16 16v32h32a16 16 0 0 1 16 16v56a16 16 0 0 1-16 16h-32v32a16 16 0 0 1-16 16Zm-40-32h24v-32a16 16 0 0 1 16-16h32v-24h-32a16 16 0 0 1-16-16v-32h-24v32a16 16 0 0 1-16 16h-32v24h32a16 16 0 0 1 16 16Z"/><path d="M332 281v56h-48v48h-56v-47a60 60 0 0 0 57.92-57zm164-105v236a30 30 0 0 1-30 30H265.35c111.27-35.52 187-144.61 175.52-266z" opacity=".2"/><path d="M496 412v54a30 30 0 0 1-30 30H282.14a203.61 203.61 0 0 0 74.22-54H466a30 30 0 0 0 30-30Z" opacity=".2"/></svg>

<svg xmlns="http://www.w3.org/2000/svg" viewBox="0 0 512 512" id="calendar"><path d="M466,512H46A46.06,46.06,0,0,1,0,466V176a16,16,0,0,1,16-16H496a16,16,0,0,1,16,16V466A46.06,46.06,0,0,1,466,512ZM32,192V466a14,14,0,0,0,14,14H466a14,14,0,0,0,14-14V192Z"></path><path d="M466 458H46A46.06 46.06 0 010 412a16 16 0 0132 0 14 14 0 0014 14H466a14 14 0 0014-14 16 16 0 0132 0A46.06 46.06 0 01466 458zM123 140a16 16 0 010-32 20 20 0 0020-20V52a20 20 0 00-40 0V72a16 16 0 01-32 0V52a52 52 0 01104 0V88A52.06 52.06 0 01123 140zM389 140a16 16 0 010-32 20 20 0 0020-20V52a20 20 0 00-40 0V72a16 16 0 01-32 0V52a52 52 0 01104 0V88A52.06 52.06 0 01389 140z"></path><path d="M496,192H16A16,16,0,0,1,0,176V102A46.06,46.06,0,0,1,46,56H466a46.06,46.06,0,0,1,46,46v74A16,16,0,0,1,496,192ZM32,160H480V102a14,14,0,0,0-14-14H46a14,14,0,0,0-14,14Z"></path><path d="M496,102v74H399A170.14,170.14,0,0,0,469.9,72.26,30,30,0,0,1,496,102Z" opacity=".2"></path><path d="M284,401H228a16,16,0,0,1-16-16V353H180a16,16,0,0,1-16-16V281a16,16,0,0,1,16-16h32V233a16,16,0,0,1,16-16h56a16,16,0,0,1,16,16v32h32a16,16,0,0,1,16,16v56a16,16,0,0,1-16,16H300v32A16,16,0,0,1,284,401Zm-40-32h24V337a16,16,0,0,1,16-16h32V297H284a16,16,0,0,1-16-16V249H244v32a16,16,0,0,1-16,16H196v24h32a16,16,0,0,1,16,16Z"></path><path d="M332 281v56H284v48H228V338a60 60 0 0057.92-57zM496 176V412a30 30 0 01-30 30H265.35c111.27-35.52 187-144.61 175.52-266z" opacity=".2"></path><path d="M496,412v54a30,30,0,0,1-30,30H282.14a203.61,203.61,0,0,0,74.22-54H466A30,30,0,0,0,496,412Z" opacity=".2"></path></svg>
